resources/images/whiteLogo.svg

<svg fill="none" height="402" viewBox="0 0 458 402" width="458" xmlns="http://www.w3.org/2000/svg"><path d="m71.5 131v-131h386.5v384h-137v-109c-78.8 115.2-246.8333 131.333-321 125v-148.5c155 0 223.667-65.167 238-120.5z" fill="#fff"/></svg>

<svg width="458" height="402" viewBox="0 0 458 402" fill="none" xmlns="http://www.w3.org/2000/svg">
<path d="M71.5 131V0H458V384H321V275C242.2 390.2 74.1667 406.333 0 400V251.5C155 251.5 223.667 186.333 238 131H71.5Z" fill="white"/>
</svg>
